IMB-X-Files/The-Ambassadors-Assets/660bd7af33fa8bd0a3e47a1d_gr1.svg

<svg fill="none" height="347" viewBox="0 0 596 347" width="596" xmlns="http://www.w3.org/2000/svg" xmlns:xlink="http://www.w3.org/1999/xlink"><linearGradient id="a"><stop offset="0" stop-color="#fff"/><stop offset="1" stop-color="#fff" stop-opacity="0"/></linearGradient><linearGradient id="b" gradientUnits="userSpaceOnUse" x1="144.5" x2="144.5" xlink:href="#a" y1="273" y2="364"/><linearGradient id="c" gradientUnits="userSpaceOnUse" x1="154.5" x2="105.5" xlink:href="#a" y1="273" y2="349"/><linearGradient id="d" gradientUnits="userSpaceOnUse" x1="411.5" x2="411.5" xlink:href="#a" y1="55" y2="364"/><clipPath id="e"><path d="m0 0h596v347h-596z"/></clipPath><g clip-path="url(#e)"><path d="m55.5 364v-81c4.5-2.167 16.2-10 45-10 36 0 37 34.5 75 34.5 30.4 0 51.333-22.667 58-34v90.5z" fill="url(#b)" opacity=".2"/><path d="m55.5 364v-81c4.5-2.167 16.2-10 45-10 36 0 37 34.5 75 34.5 30.4 0 51.333-22.667 58-34" opacity=".2" stroke="url(#c)"/><path d="m589.5 364v-309c-47.5 149.5-259.995 233.374-356 218.5v90.5z" fill="url(#d)"/><g stroke="#fff"><path d="m55.5 364v-332" opacity=".2"/><path d="m144.5 364v-332" opacity=".2"/><path d="m233.5 364v-332" opacity=".2"/><path d="m322.5 364v-332" opacity=".2"/><path d="m411.5 364v-332" opacity=".2"/><path d="m500.5 364v-332" opacity=".2"/><path d="m589.5 364v-332" opacity=".2"/></g><rect fill="#fff" height="72" rx="36" width="72" x="198" y="243"/><path d="m230.873 295c20.696 0 10.798-31.101 20.561-31.101.495 0 1.035.09 1.664.27v-1.079c-16.511-1.753-10.887 22.517-17.636 29.303l-.405-1.033-14.351-28.27h-5.804z" fill="#0e031e"/></g></svg>

<svg width="596" height="347" viewBox="0 0 596 347" fill="none" xmlns="http://www.w3.org/2000/svg">
    <g clip-path="url(#clip0_2530_9797)">
        <path opacity="0.2"
            d="M55.5 364V283C60 280.833 71.7 273 100.5 273C136.5 273 137.5 307.5 175.5 307.5C205.9 307.5 226.833 284.833 233.5 273.5V364H55.5Z"
            fill="url(#paint0_linear_2530_9797)" />
        <path opacity="0.2"
            d="M55.5 364V283C60 280.833 71.7 273 100.5 273C136.5 273 137.5 307.5 175.5 307.5C205.9 307.5 226.833 284.833 233.5 273.5"
            stroke="url(#paint1_linear_2530_9797)" />
        <path d="M589.5 364V55C542 204.5 329.505 288.374 233.5 273.5V364H589.5Z" fill="url(#paint2_linear_2530_9797)" />
        <line opacity="0.2" x1="55.5" y1="364" x2="55.5" y2="32" stroke="white" />
        <line opacity="0.2" x1="144.5" y1="364" x2="144.5" y2="32" stroke="white" />
        <line opacity="0.2" x1="233.5" y1="364" x2="233.5" y2="32" stroke="white" />
        <line opacity="0.2" x1="322.5" y1="364" x2="322.5" y2="32" stroke="white" />
        <line opacity="0.2" x1="411.5" y1="364" x2="411.5" y2="32" stroke="white" />
        <line opacity="0.2" x1="500.5" y1="364" x2="500.5" y2="32" stroke="white" />
        <line opacity="0.2" x1="589.5" y1="364" x2="589.5" y2="32" stroke="white" />
        <rect x="198" y="243" width="72" height="72" rx="36" fill="white" />
        <path
            d="M230.873 295C251.569 295 241.671 263.899 251.434 263.899C251.929 263.899 252.469 263.989 253.098 264.169V263.09C236.587 261.337 242.211 285.607 235.462 292.393L235.057 291.36L220.706 263.09H214.902L230.873 295Z"
            fill="#0E031E" />
    </g>
    <defs>
        <linearGradient id="paint0_linear_2530_9797" x1="144.5" y1="273" x2="144.5" y2="364"
            gradientUnits="userSpaceOnUse">
            <stop stop-color="white" />
            <stop offset="1" stop-color="white" stop-opacity="0" />
        </linearGradient>
        <linearGradient id="paint1_linear_2530_9797" x1="154.5" y1="273" x2="105.5" y2="349"
            gradientUnits="userSpaceOnUse">
            <stop stop-color="white" />
            <stop offset="1" stop-color="white" stop-opacity="0" />
        </linearGradient>
        <linearGradient id="paint2_linear_2530_9797" x1="411.5" y1="55" x2="411.5" y2="364"
            gradientUnits="userSpaceOnUse">
            <stop stop-color="white" />
            <stop offset="1" stop-color="white" stop-opacity="0" />
        </linearGradient>
        <clipPath id="clip0_2530_9797">
            <rect width="596" height="347" fill="white" />
        </clipPath>
    </defs>
</svg>
